;FLAVOR:Marlin
;TIME:3555
;Filament used: 1.77803m
;Layer height: 0.2
;MINX:86.448
;MINY:79.482
;MINZ:0.3
;MAXX:139.639
;MAXY:141.114
;MAXZ:11.9
;Generated with Creality Slicer 4.8.2-279
M140 S70
M105
M190 S70
M104 S215
M105
M109 S215
M82 ;absolute extrusion mode

G28 ;Home

G92 E0 ;Reset Extruder
G1 Z2.0 F3000 ;Move Z Axis up
G1 X10.1 Y20 Z0.28 F5000.0 ;Move to start position
G1 X10.1 Y200.0 Z0.28 F1500.0 E15 ;Draw the first line
G1 X10.4 Y200.0 Z0.28 F5000.0 ;Move to side a little
G1 X10.4 Y20 Z0.28 F1500.0 E30 ;Draw the second line
G92 E0 ;Reset Extruder
G1 Z2.0 F3000 ;Move Z Axis up

G92 E0
G92 E0
G1 F3600 E-5
;LAYER_COUNT:59
;LAYER:0
M107
G0 F6000 X87.655 Y85.839 Z0.3
;TYPE:SKIRT
G1 F3600 E0
G1 F900 X88.05 Y85.455 E0.02748
G1 X88.496 Y85.131 E0.05499
G1 X88.984 Y84.876 E0.08246
G1 X89.504 Y84.693 E0.10996
G1 X90.045 Y84.588 E0.13745
G1 X90.498 Y84.561 E0.16009
G1 X92.498 Y84.561 E0.25987
G1 X93.048 Y84.601 E0.28739
G1 X93.586 Y84.72 E0.31488
G1 X94.101 Y84.916 E0.34237
G1 X94.582 Y85.184 E0.36984
G1 X95.02 Y85.518 E0.39732
G1 X95.121 Y85.622 E0.40455
G1 X95.164 Y85.541 E0.40913
G1 X95.404 Y85.12 E0.4333
G1 X95.528 Y84.918 E0.44513
G1 X95.795 Y84.511 E0.46941
G1 X95.932 Y84.315 E0.48134
G1 X96.223 Y83.927 E0.50554
G1 X96.37 Y83.744 E0.51725
G1 X96.685 Y83.374 E0.54149
G1 X96.845 Y83.197 E0.5534
G1 X97.183 Y82.847 E0.57767
G1 X97.357 Y82.678 E0.58977
G1 X97.716 Y82.351 E0.614
G1 X97.892 Y82.2 E0.62557
G1 X98.272 Y81.894 E0.64991
G1 X98.454 Y81.756 E0.66131
G1 X98.851 Y81.474 E0.6856
G1 X99.06 Y81.336 E0.6981
G1 X99.471 Y81.083 E0.72217
G1 X99.671 Y80.968 E0.73368
G1 X100.101 Y80.738 E0.75801
G1 X100.317 Y80.631 E0.77004
G1 X100.758 Y80.43 E0.79422
G1 X100.977 Y80.339 E0.80605
G1 X101.432 Y80.165 E0.83035
G1 X101.644 Y80.091 E0.84156
G1 X102.109 Y79.944 E0.86589
G1 X102.353 Y79.875 E0.87854
G1 X102.824 Y79.76 E0.90273
G1 X103.046 Y79.713 E0.91405
G1 X103.525 Y79.626 E0.93833
G1 X103.765 Y79.59 E0.95044
G1 X104.247 Y79.534 E0.97465
G1 X104.475 Y79.515 E0.98607
G1 X104.961 Y79.488 E1.01035
G1 X105.203 Y79.482 E1.02243
G1 X105.688 Y79.486 E1.04662
G1 X105.923 Y79.495 E1.05836
G1 X106.407 Y79.529 E1.08256
G1 X106.649 Y79.554 E1.0947
G1 X107.131 Y79.619 E1.11897
G1 X107.356 Y79.656 E1.13034
G1 X107.834 Y79.75 E1.15465
G1 X108.072 Y79.805 E1.16683
G1 X108.541 Y79.929 E1.19104
G1 X108.767 Y79.996 E1.2028
G1 X109.228 Y80.149 E1.22703
G1 X109.446 Y80.229 E1.23861
G1 X109.897 Y80.41 E1.26286
G1 X110.122 Y80.509 E1.27512
G1 X110.561 Y80.719 E1.2994
G1 X110.763 Y80.823 E1.31074
G1 X111.187 Y81.058 E1.33492
G1 X111.399 Y81.185 E1.34725
G1 X111.81 Y81.449 E1.37162
G1 X111.998 Y81.578 E1.383
G1 X112.388 Y81.863 E1.4071
G1 X112.58 Y82.013 E1.41925
G1 X112.954 Y82.325 E1.44355
G1 X113.132 Y82.483 E1.45542
G1 X113.485 Y82.817 E1.47967
G1 X113.648 Y82.981 E1.49121
G1 X113.981 Y83.337 E1.51553
G1 X114.135 Y83.513 E1.52719
G1 X114.444 Y83.887 E1.5514
G1 X114.591 Y84.076 E1.56334
G1 X114.876 Y84.469 E1.58756
G1 X115.015 Y84.674 E1.59992
G1 X115.274 Y85.085 E1.62416
G1 X115.385 Y85.273 E1.63505
G1 X115.621 Y85.7 E1.65939
G1 X115.737 Y85.927 E1.67211
G1 X115.942 Y86.365 E1.69623
G1 X116.029 Y86.567 E1.70721
G1 X116.209 Y87.018 E1.73143
G1 X116.293 Y87.249 E1.7437
G1 X116.444 Y87.712 E1.76799
G1 X116.512 Y87.946 E1.78015
G1 X116.633 Y88.418 E1.80446
G1 X116.685 Y88.65 E1.81632
G1 X116.776 Y89.127 E1.84055
G1 X116.811 Y89.346 E1.85161
G1 X116.855 Y89.685 E1.86867
G1 X117.013 Y89.573 E1.87833
G1 X117.503 Y89.321 E1.90582
G1 X117.88 Y89.183 E1.92585
G1 X118.161 Y89.097 E1.94051
G1 X118.698 Y88.975 E1.96798
G1 X119.247 Y88.931 E1.99546
G1 X119.623 Y88.947 E2.01424
G1 X119.915 Y88.974 E2.02887
G1 X120.458 Y89.065 E2.05633
G1 X120.983 Y89.233 E2.08383
G1 X121.333 Y89.394 E2.10305
G1 X121.586 Y89.527 E2.11731
G1 X122.054 Y89.819 E2.14484
G1 X122.301 Y90.015 E2.16057
G1 X122.674 Y90.337 E2.18515
G1 X122.863 Y90.511 E2.19797
G1 X123.217 Y90.861 E2.2228
G1 X123.384 Y91.037 E2.23491
G1 X123.706 Y91.399 E2.25908
G1 X123.854 Y91.576 E2.27059
G1 X124.156 Y91.96 E2.29496
G1 X124.294 Y92.147 E2.30656
G1 X124.57 Y92.546 E2.33076
G1 X124.708 Y92.76 E2.34347
G1 X124.957 Y93.177 E2.3677
G1 X125.061 Y93.364 E2.37837
G1 X125.287 Y93.796 E2.4027
G1 X125.392 Y94.013 E2.41472
G1 X125.589 Y94.456 E2.43891
G1 X125.683 Y94.686 E2.45131
G1 X125.851 Y95.142 E2.47555
G1 X125.922 Y95.355 E2.48675
G1 X126.063 Y95.821 E2.51104
G1 X126.125 Y96.052 E2.52298
G1 X126.236 Y96.524 E2.54717
G1 X126.285 Y96.768 E2.55958
G1 X126.365 Y97.247 E2.58381
G1 X126.396 Y97.475 E2.59529
G1 X126.447 Y97.959 E2.61957
G1 X126.464 Y98.185 E2.63088
G1 X126.486 Y98.671 E2.65515
G1 X126.489 Y98.921 E2.66762
G1 X126.479 Y99.406 E2.69182
G1 X126.476 Y99.472 E2.69512
G1 X132.492 Y99.472 E2.99526
G1 X133.042 Y99.512 E3.02277
G1 X133.58 Y99.631 E3.05026
G1 X134.095 Y99.827 E3.07775
G1 X134.576 Y100.095 E3.10522
G1 X135.014 Y100.429 E3.1327
G1 X135.398 Y100.824 E3.16019
G1 X135.722 Y101.27 E3.18769
G1 X135.977 Y101.758 E3.21516
G1 X136.16 Y102.278 E3.24266
G1 X136.265 Y102.819 E3.27016
G1 X136.292 Y103.272 E3.2928
G1 X136.292 Y105.272 E3.39258
G1 X136.252 Y105.822 E3.42009
G1 X136.133 Y106.36 E3.44758
G1 X135.937 Y106.875 E3.47507
G1 X135.669 Y107.356 E3.50254
G1 X135.529 Y107.54 E3.51408
G1 X135.744 Y107.722 E3.52813
G1 X135.929 Y107.889 E3.54056
G1 X136.278 Y108.227 E3.5648
G1 X136.443 Y108.398 E3.57666
G1 X136.77 Y108.757 E3.60089
G1 X136.921 Y108.933 E3.61246
G1 X137.227 Y109.313 E3.6368
G1 X137.363 Y109.493 E3.64805
G1 X137.644 Y109.888 E3.67224
G1 X137.785 Y110.1 E3.68494
G1 X138.039 Y110.513 E3.70913
G1 X138.153 Y110.712 E3.72057
G1 X138.383 Y111.142 E3.7449
G1 X138.49 Y111.358 E3.75692
G1 X138.691 Y111.799 E3.7811
G1 X138.779 Y112.008 E3.79242
G1 X138.954 Y112.462 E3.81669
G1 X139.033 Y112.691 E3.82878
G1 X139.179 Y113.156 E3.85309
G1 X139.244 Y113.387 E3.86507
G1 X139.36 Y113.859 E3.88931
G1 X139.41 Y114.092 E3.9012
G1 X139.496 Y114.569 E3.92538
G1 X139.531 Y114.805 E3.93729
G1 X139.587 Y115.288 E3.96155
G1 X139.606 Y115.515 E3.97291
G1 X139.633 Y116.001 E3.99719
G1 X139.639 Y116.243 E4.00927
G1 X139.635 Y116.729 E4.03352
G1 X139.626 Y116.964 E4.04525
G1 X139.592 Y117.448 E4.06946
G1 X139.568 Y117.682 E4.08119
G1 X139.504 Y118.164 E4.10545
G1 X139.464 Y118.403 E4.11754
G1 X139.369 Y118.882 E4.1419
G1 X139.315 Y119.116 E4.15389
G1 X139.191 Y119.584 E4.17804
G1 X139.125 Y119.808 E4.18969
G1 X138.972 Y120.269 E4.21392
G1 X138.892 Y120.487 E4.22551
G1 X138.711 Y120.938 E4.24975
G1 X138.612 Y121.163 E4.26202
G1 X138.402 Y121.602 E4.2863
G1 X138.298 Y121.804 E4.29763
G1 X138.063 Y122.228 E4.32182
G1 X137.938 Y122.438 E4.33401
G1 X137.675 Y122.848 E4.35831
G1 X137.543 Y123.039 E4.36989
G1 X137.257 Y123.43 E4.39406
G1 X137.108 Y123.621 E4.40615
G1 X136.796 Y123.995 E4.43045
G1 X136.638 Y124.173 E4.44232
G1 X136.304 Y124.526 E4.46657
G1 X136.144 Y124.686 E4.47785
G1 X135.789 Y125.019 E4.50214
G1 X135.606 Y125.18 E4.5143
G1 X135.231 Y125.489 E4.53854
G1 X135.045 Y125.632 E4.55025
G1 X134.652 Y125.917 E4.57447
G1 X134.447 Y126.056 E4.58682
G1 X134.036 Y126.315 E4.61106
G1 X133.848 Y126.426 E4.62195
G1 X133.421 Y126.662 E4.64629
G1 X133.194 Y126.778 E4.65901
G1 X132.756 Y126.983 E4.68314
G1 X132.551 Y127.071 E4.69427
G1 X132.099 Y127.251 E4.71854
G1 X131.871 Y127.334 E4.73064
G1 X131.408 Y127.485 E4.75494
G1 X131.176 Y127.552 E4.76699
G1 X130.705 Y127.673 E4.79125
G1 X130.477 Y127.725 E4.80292
G1 X129.999 Y127.817 E4.8272
G1 X129.766 Y127.854 E4.83897
G1 X129.284 Y127.916 E4.86322
G1 X129.05 Y127.939 E4.87495
G1 X128.566 Y127.971 E4.89915
G1 X128.329 Y127.979 E4.91098
G1 X127.795 Y127.981 E4.93762
G1 X121.841 Y127.981 E5.23467
G1 X121.291 Y127.941 E5.26218
G1 X120.753 Y127.822 E5.28967
G1 X120.238 Y127.626 E5.31716
G1 X119.757 Y127.358 E5.34463
G1 X119.319 Y127.024 E5.37211
G1 X118.935 Y126.629 E5.39959
G1 X118.611 Y126.183 E5.4271
G1 X118.356 Y125.695 E5.45457
G1 X118.173 Y125.175 E5.48207
G1 X118.068 Y124.634 E5.50956
G1 X118.041 Y124.181 E5.5322
G1 X118.041 Y122.281 E5.627
G1 X117.988 Y122.332 E5.63067
G1 X117.628 Y122.659 E5.65493
G1 X117.461 Y122.802 E5.6659
G1 X117.081 Y123.109 E5.69027
G1 X116.931 Y123.222 E5.69964
G1 X117.013 Y123.349 E5.70718
G1 X117.262 Y123.766 E5.73141
G1 X117.366 Y123.953 E5.74209
G1 X117.592 Y124.385 E5.76641
G1 X117.7 Y124.608 E5.77877
G1 X117.896 Y125.051 E5.80294
G1 X117.985 Y125.271 E5.81478
G1 X118.154 Y125.728 E5.83909
G1 X118.227 Y125.945 E5.85051
G1 X118.368 Y126.411 E5.8748
G1 X118.432 Y126.65 E5.88715
G1 X118.542 Y127.122 E5.91132
G1 X118.588 Y127.35 E5.92293
G1 X118.669 Y127.829 E5.94717
G1 X118.701 Y128.065 E5.95905
G1 X118.752 Y128.549 E5.98333
G1 X118.769 Y128.783 E5.99503
G1 X118.79 Y129.269 E6.0193
G1 X118.793 Y129.504 E6.03103
G1 X118.784 Y129.989 E6.05523
G1 X118.772 Y130.231 E6.06732
G1 X118.732 Y130.715 E6.09155
G1 X118.706 Y130.947 E6.10319
G1 X118.636 Y131.43 E6.12754
G1 X118.593 Y131.668 E6.13961
G1 X118.493 Y132.143 E6.16382
G1 X118.438 Y132.37 E6.17548
G1 X118.309 Y132.838 E6.1997
G1 X118.241 Y133.058 E6.21119
G1 X118.084 Y133.517 E6.23539
G1 X117.994 Y133.755 E6.24808
G1 X117.806 Y134.204 E6.27237
G1 X117.714 Y134.407 E6.28349
G1 X117.5 Y134.844 E6.30776
G1 X117.388 Y135.055 E6.31968
G1 X117.148 Y135.476 E6.34386
G1 X117.024 Y135.678 E6.35568
G1 X116.757 Y136.085 E6.37997
G1 X116.62 Y136.281 E6.3919
G1 X116.329 Y136.669 E6.41609
G1 X116.186 Y136.848 E6.42752
G1 X115.871 Y137.219 E6.45181
G1 X115.704 Y137.404 E6.46424
G1 X115.366 Y137.753 E6.48848
G1 X115.191 Y137.922 E6.50062
G1 X114.831 Y138.249 E6.52488
G1 X114.659 Y138.396 E6.53617
G1 X114.279 Y138.702 E6.56051
G1 X114.1 Y138.837 E6.57169
G1 X113.704 Y139.119 E6.59595
G1 X113.492 Y139.26 E6.60865
G1 X113.081 Y139.513 E6.63273
G1 X112.878 Y139.63 E6.64442
G1 X112.447 Y139.86 E6.66879
G1 X112.237 Y139.963 E6.68046
G1 X111.797 Y140.164 E6.70459
G1 X111.582 Y140.255 E6.71624
G1 X111.127 Y140.43 E6.74056
G1 X110.901 Y140.508 E6.75249
G1 X110.436 Y140.654 E6.77681
G1 X110.207 Y140.719 E6.78868
G1 X109.736 Y140.835 E6.81288
G1 X109.499 Y140.885 E6.82497
G1 X109.02 Y140.971 E6.84925
G1 X108.787 Y141.006 E6.861
G1 X108.305 Y141.062 E6.88521
G1 X108.077 Y141.081 E6.89662
G1 X107.591 Y141.108 E6.92091
G1 X107.349 Y141.114 E6.93299
G1 X106.864 Y141.11 E6.95718
G1 X106.629 Y141.101 E6.96892
G1 X106.145 Y141.067 E6.99312
G1 X105.903 Y141.042 E7.00526
G1 X105.421 Y140.977 E7.02952
G1 X105.196 Y140.94 E7.0409
G1 X104.718 Y140.846 E7.0652
G1 X104.48 Y140.791 E7.07739
G1 X104.011 Y140.667 E7.10159
G1 X103.787 Y140.6 E7.11326
G1 X103.325 Y140.447 E7.13754
G1 X103.101 Y140.365 E7.14944
G1 X102.649 Y140.183 E7.17375
G1 X102.428 Y140.086 E7.18579
G1 X101.991 Y139.877 E7.20996
G1 X101.789 Y139.773 E7.22129
G1 X101.365 Y139.538 E7.24548
G1 X101.153 Y139.411 E7.25781
G1 X100.742 Y139.147 E7.28218
G1 X100.553 Y139.017 E7.29362
G1 X100.162 Y138.731 E7.31779
G1 X99.972 Y138.583 E7.32981
G1 X99.599 Y138.272 E7.35404
G1 X99.42 Y138.113 E7.36598
G1 X99.066 Y137.778 E7.3903
G1 X98.903 Y137.614 E7.40183
G1 X98.571 Y137.259 E7.42608
G1 X98.417 Y137.084 E7.43771
G1 X98.107 Y136.709 E7.46198
G1 X97.96 Y136.519 E7.47397
G1 X97.675 Y136.126 E7.49819
G1 X97.54 Y135.927 E7.51019
G1 X97.28 Y135.516 E7.53445
G1 X97.16 Y135.313 E7.54621
G1 X96.926 Y134.887 E7.57046
G1 X96.815 Y134.669 E7.58267
G1 X96.641 Y134.297 E7.60316
G1 X96.59 Y134.344 E7.60662
G1 X96.365 Y134.53 E7.62118
G1 X95.916 Y134.849 E7.64866
G1 X95.426 Y135.1 E7.67613
G1 X95.068 Y135.231 E7.69515
G1 X94.787 Y135.318 E7.70982
G1 X94.25 Y135.442 E7.73732
G1 X93.701 Y135.488 E7.7648
G1 X93.299 Y135.471 E7.78488
G1 X93.008 Y135.443 E7.79946
G1 X92.465 Y135.35 E7.82695
G1 X91.941 Y135.18 E7.85443
G1 X91.614 Y135.029 E7.8724
G1 X91.361 Y134.897 E7.88664
G1 X90.893 Y134.607 E7.91411
G1 X90.631 Y134.4 E7.93076
G1 X90.257 Y134.076 E7.95545
G1 X90.069 Y133.902 E7.96823
G1 X89.716 Y133.552 E7.99303
G1 X89.56 Y133.388 E8.00432
G1 X89.236 Y133.026 E8.02856
G1 X89.08 Y132.84 E8.04067
G1 X88.779 Y132.457 E8.06498
G1 X88.645 Y132.276 E8.07621
G1 X88.368 Y131.877 E8.10044
G1 X88.227 Y131.658 E8.11344
G1 X87.978 Y131.241 E8.13767
G1 X87.872 Y131.052 E8.14848
G1 X87.647 Y130.621 E8.17274
G1 X87.541 Y130.4 E8.18497
G1 X87.345 Y129.957 E8.20913
G1 X87.255 Y129.734 E8.22113
G1 X87.086 Y129.276 E8.24549
G1 X87.014 Y129.062 E8.25675
G1 X86.873 Y128.596 E8.28104
G1 X86.81 Y128.359 E8.29328
G1 X86.7 Y127.888 E8.31741
G1 X86.653 Y127.656 E8.32922
G1 X86.572 Y127.176 E8.3535
G1 X86.54 Y126.941 E8.36533
G1 X86.489 Y126.456 E8.38966
G1 X86.472 Y126.224 E8.40127
G1 X86.451 Y125.74 E8.42544
G1 X86.448 Y125.497 E8.43756
G1 X86.458 Y125.012 E8.46177
G1 X86.469 Y124.785 E8.4731
G1 X86.508 Y124.3 E8.49738
G1 X86.535 Y124.059 E8.50948
G1 X86.605 Y123.577 E8.53378
G1 X86.647 Y123.342 E8.54569
G1 X86.747 Y122.866 E8.56995
G1 X86.803 Y122.635 E8.58181
G1 X86.932 Y122.168 E8.60598
G1 X87 Y121.95 E8.61738
G1 X87.157 Y121.491 E8.64158
G1 X87.247 Y121.253 E8.65427
G1 X87.435 Y120.804 E8.67856
G1 X87.527 Y120.601 E8.68968
G1 X87.741 Y120.164 E8.71395
G1 X87.853 Y119.953 E8.72587
G1 X88.093 Y119.532 E8.75005
G1 X88.22 Y119.324 E8.76221
G1 X88.488 Y118.917 E8.78652
G1 X88.622 Y118.727 E8.79812
G1 X88.913 Y118.339 E8.82231
G1 X89.052 Y118.164 E8.83346
G1 X89.366 Y117.793 E8.85771
G1 X89.537 Y117.604 E8.87043
G1 X89.875 Y117.255 E8.89467
G1 X90.05 Y117.086 E8.9068
G1 X90.41 Y116.759 E8.93107
G1 X90.577 Y116.616 E8.94204
G1 X90.957 Y116.309 E8.96641
G1 X91.147 Y116.165 E8.9783
G1 X91.542 Y115.885 E9.00246
G1 X91.74 Y115.754 E9.0143
G1 X92.152 Y115.499 E9.03848
G1 X92.397 Y115.359 E9.05255
G1 X92.22 Y114.962 E9.07424
G1 X92.124 Y114.727 E9.0869
G1 X91.956 Y114.269 E9.11124
G1 X91.887 Y114.061 E9.12218
G1 X91.746 Y113.595 E9.14647
G1 X91.684 Y113.366 E9.1583
G1 X91.573 Y112.895 E9.18244
G1 X91.524 Y112.648 E9.19501
G1 X91.444 Y112.168 E9.21929
G1 X91.413 Y111.942 E9.23067
G1 X91.362 Y111.459 E9.2549
G1 X91.345 Y111.232 E9.26625
G1 X91.323 Y110.746 E9.29053
G1 X91.32 Y110.496 E9.303
G1 X91.33 Y110.011 E9.3272
G1 X91.341 Y109.784 E9.33854
G1 X91.38 Y109.3 E9.36276
G1 X91.407 Y109.059 E9.37486
G1 X91.477 Y108.577 E9.39916
G1 X91.519 Y108.342 E9.41107
G1 X91.619 Y107.866 E9.43534
G1 X91.677 Y107.63 E9.44746
G1 X91.807 Y107.162 E9.4717
G1 X91.87 Y106.956 E9.48244
G1 X92.026 Y106.497 E9.50663
G1 X92.119 Y106.252 E9.5197
G1 X92.307 Y105.803 E9.54399
G1 X92.402 Y105.593 E9.55549
G1 X92.617 Y105.156 E9.57978
G1 X92.82 Y104.787 E9.6008
G1 X92.448 Y104.58 E9.62204
G1 X92.241 Y104.457 E9.63405
G1 X91.831 Y104.194 E9.65835
G1 X91.638 Y104.061 E9.67004
G1 X91.246 Y103.774 E9.69428
G1 X91.062 Y103.63 E9.70594
G1 X90.689 Y103.32 E9.73014
G1 X90.506 Y103.158 E9.74233
G1 X90.152 Y102.823 E9.76664
G1 X89.989 Y102.659 E9.77818
G1 X89.657 Y102.304 E9.80243
G1 X89.503 Y102.129 E9.81406
G1 X89.193 Y101.754 E9.83833
G1 X89.043 Y101.56 E9.85057
G1 X88.758 Y101.166 E9.87483
G1 X88.624 Y100.968 E9.88676
G1 X88.365 Y100.558 E9.91095
G1 X88.249 Y100.361 E9.92236
G1 X88.014 Y99.934 E9.94667
G1 X87.9 Y99.709 E9.95926
G1 X87.696 Y99.272 E9.98332
G1 X87.61 Y99.075 E9.99404
G1 X87.429 Y98.622 E10.01838
G1 X87.343 Y98.383 E10.03105
G1 X87.193 Y97.92 E10.05533
G1 X87.13 Y97.704 E10.06656
G1 X87.008 Y97.234 E10.09078
G1 X86.953 Y96.99 E10.10326
G1 X86.862 Y96.512 E10.12754
G1 X86.827 Y96.293 E10.1386
G1 X86.764 Y95.811 E10.16285
G1 X86.74 Y95.562 E10.17533
G1 X86.709 Y95.079 E10.19948
G1 X86.701 Y94.857 E10.21056
G1 X86.698 Y94.322 E10.23725
G1 X86.698 Y88.361 E10.53465
G1 X86.738 Y87.811 E10.56216
G1 X86.857 Y87.273 E10.58965
G1 X87.053 Y86.758 E10.61714
G1 X87.321 Y86.277 E10.64461
G1 X87.655 Y85.839 E10.67209
G0 F6000 X88.05 Y86.001
G1 F900 X88.44 Y85.655 E10.6981
G1 X88.878 Y85.372 E10.72412
G1 X89.353 Y85.159 E10.75009
G1 X89.856 Y85.022 E10.7761
G1 X90.498 Y84.961 E10.80828
G1 X92.498 Y84.961 E10.90806
G1 X93.018 Y85.001 E10.93407
G1 X93.525 Y85.12 E10.96006
G1 X94.008 Y85.315 E10.98604
G1 X94.456 Y85.581 E11.01204
G1 X94.858 Y85.913 E11.03805
G1 X95.204 Y86.303 E11.06406
G1 X95.217 Y86.323 E11.06525
G1 X95.414 Y85.922 E11.08754
G1 X95.511 Y85.739 E11.09787
G1 X95.751 Y85.318 E11.12205
G1 X95.862 Y85.137 E11.13264
